X:1
T:Seniores populi
T:Lassus edit BMarble
T:Seniores populi
T:Copyright © 2016 by The Choral Public Domain Library. Edition may be freely distributed, duplicated, performed or recorded.
T:Copyright © 2016 by The Choral Public Domain Library. Edition may be freely distributed, duplicated, performed or recorded.
T:Copyright © 2016 by The Choral Public Domain Library. Edition may be freely distributed, duplicated, performed or recorded.
T:Copyright © 2016 by The Choral Public Domain Library. Edition may be freely distributed, duplicated, performed or recorded.
C:Lassus
C:edit BMarble
Z:Copyright © 2016 by The Choral Public Domain Library. Edition may be freely distributed, duplicated, performed or recorded.
%%score [ 1 2 3 4 ]
L:1/8
Q:1/2=80
M:4/2
K:G
V:1 treble nm="Soprano" snm="S."
V:2 treble nm="Alto" snm="A."
V:3 treble-8 transpose=-12 nm="Tenor" snm="T."
V:4 bass nm="Bass" snm="B."
V:1
"^The elders of the people discussedThat they might by craft apprehend Jesus and kill him.They came out with swords and clubs as against a robber.Vs: Then the chief priests and the Pharisees gathered a council,That they might by craft apprehend Jesus and kill him." E8 E4 E4- | %1
w: Se- ni- o-|
 E4 E4 E4 F4 | G8 z4 G4 | G6 G2 G4 B4 | A16 | ^G16 ||S (A8 =G8) | F16 | F4 G4 E4 G4 | =F8 E4 E4- | %10
w: * res po- pu-|li con-|si- li- um fe-|ce-|runt,|Ut _|Je-|sum do- lo te-|ne- rent, et|
 E4 D4 D4 D4 | D8 z4 G4 | d6 d2 d4 d4 | A4 B4 B8 | B8 B4 A4- | (A2 GF G4) F4 B4- | B4 G8 c4- | %17
w: _ oc- ci- de-|rent: cum|gla- di- us et|fu- sti- bus|ex- i- e-|* * * * runt tam-|* quam ad|
 c4 A8 B4- | B4 A6 ^GF G4 | A16!fine! |] B12 A4 | (G4 F2 E2 B8) | E8 z4 G4 | c6 c2 A4 A4- | %24
w: _ la- tro-||nem.|Col- le-|ge- * * *|runt pon-|ti- fi- ces et|
 A4 B4 A4 c4 | B4 A4 G4 !courtesy!=F4 | E4 G4 c6 c2 | A4 A8 B4 | A4 G4 !courtesy!=F4 E4 | %29
w: _ pha- ri- se-|i con- ci- li-|um, pon- ti- fi-|ces et pha-|ri- se- i con-|
 D4 E4 E8-!D.S.! | E16 |] %31
w: ci- li- um.|_|
V:2
 C12 B,4 | C4 B,4 ^C4 D4 | E4 D4 D8- | D4 E4 D4 G4 | =F2 E2 E6 DC D4 | E16 || E16 | ^D16 | %8
w: Se- ni-|o- res po- pu-|li con- si-|* li- um fe-|ce- * * * * *|runt,|Ut|Je-|
 ^D4 E4 =C4 =D4 | D8 B,4 =C4- | C4 B,4 A,8- | A,4 B,4 B,8 | z4 B,4 F6 F2 | F4 G4 G6 G2 | %14
w: sum do- lo te-|ne- rent, et|_ oc- ci-|* de- rent:|cum gla- di-|us et fu- sti-|
 F4 G4 G4 F4- | F2 E2 E6 ^D^C D4 | B,8 E8 | C8 =F8 | E8 E8 | ^C16 |] z16 | E12 D4 | %22
w: bus ex- i- e-||runt tam-|quam ad|la- tro-|nem.||Col- le-|
 (C4 B,2 A,2 E8) | A,4 C4 =F6 F2 | D4 D8 E4 | D4 =F4 E4 D4 | C4 B,4 A,4 C4 | =F6 F2 D4 D4- | %28
w: ge- * * *|runt pon- ti- fi-|ces et pha-|ri- se- i con-|ci- li- um, pon-|ti- fi- ces et|
 D4 E4 D4 C4 | B,4 A,4 G,4 A,4 | A,16 |] %31
w: _ pha- ri- se-|i con- ci- li-|um.|
V:3
 A12 ^G4 | A4 ^G4 A6 A2 | c4 B4 B6 B2 | B4 c4 B2 c2 d2 e2 | c6 B2 A8 | B16 || (c8 B8) | B16 | %8
w: Se- ni-|o- res po- pu-|li con- si- li-|um fe- ce- * * *||runt,|Ut _|Je-|
 B4 B4 A4 B4 | A8 ^G4 A4 | E4 (=G8 F2 E2 | F4) G4 D8 | z4 G4 A6 A2 | d4 d4 e6 e2 | d8 d6 d2 | %15
w: sum do- lo te-|ne- rent, et|oc- ci- * *|* de- rent:|cum gla- di-|us et fu- sti-|bus ex- i-|
 B4 B4 B8 | G8 c8 | (A8 d8) | (c8 B8) | A16 |] z16 | z16 | z16 | z16 | z16 | z16 | z16 | z16 | %28
w: e- runt tam-|quam ad|la- *|tro- *|nem.|||||||||
 z16 | z16 | z16 |] %31
w: |||
V:4
 A,,12 E,4 | A,,4 E,4 A,,4 D,4 | C,4 G,4 G,6 G,2 | G,4 C,4 G,8 | A,6 G,2 =F,8 | E,16 || %6
w: Se- ni-|o- res po- pu-|li con- si- li-|um fe- ce-||runt,|
 (A,,8 E,8) | B,,16 | B,,4 E,4 A,,4 G,,4 | D,8 E,4 A,,4- | A,,4 B,,4 D,8- | D,4 G,,4 G,,8 | %12
w: Ut _|Je-|sum do- lo te-|ne- rent, et|_ oc- ci-|* de- rent:|
 z4 G,,4 D,6 D,2 | D,4 G,4 E,6 E,2 | B,4 G,8 D,4 | E,8 B,,8 | E,8 C,8 | =F,8 D,8 | E,16 | A,,16 |] %20
w: cum gla- di-|us et fu- sti-|bus ex- i-|e- runt|tam- quam|ad la-|tro-|nem.|
 z16 | z16 | z16 | z16 | z16 | z16 | z16 | z16 | z16 | z16 | z16 |] %31
w: |||||||||||

